src/images/icons/play-gray.svg

<svg width="23" height="27" viewBox="0 0 23 27" fill="none" xmlns="http://www.w3.org/2000/svg">
<path fill-rule="evenodd" clip-rule="evenodd" d="M0.231445 26.6546C0.736316 26.5425 10.2167 20.8767 11.3947 20.2035L22.6701 13.528L22.0531 13.0231C21.8287 12.9109 21.6604 12.7988 21.3799 12.6305C20.875 12.35 20.4263 12.1256 19.9214 11.789C18.9678 11.228 18.1263 10.7232 17.1727 10.1622C15.2654 9.09637 13.4703 7.97443 11.5069 6.8525C10.0484 6.01105 0.848509 0.457469 0.231445 0.345276V26.6546Z" fill="#F0F0F0"/>
</svg>

<svg xmlns="http://www.w3.org/2000/svg" width="23" height="27" fill="none" viewBox="0 0 23 27">
	<path fill="#F0F0F0" fill-rule="evenodd" d="M.231 26.655c.505-.113 9.986-5.778 11.164-6.452l11.275-6.675-.617-.505c-.224-.112-.393-.224-.673-.393-.505-.28-.954-.504-1.459-.841-.953-.561-1.795-1.066-2.748-1.627-1.908-1.066-3.703-2.188-5.666-3.31C10.048 6.011.849.458.23.346v26.31z" clip-rule="evenodd"/>
</svg>
